X:1
T:OWLS WITH TENTACLES
C:Barnaby Walters
M:4/4
L:1/8
K:Cmix
g/f/e/f/|: g.b z a2 g g/f/e/f/|g.b z a2 g d'2|g.b z a2 g g/f/e/f/|ge ed dB c2 :|
.cc .BB Gd/e/ fd|g/f/.e ed/e/ fg f/e/d|.cc .BB Gd/e/ fd|g/f/.e ed e4 :|
